!!!OTL: Zwei liebten sich (20a), S. 84
!!!id: T0135
**kern
*clefG2
*k[b-]
*F:
{8c
8f
8g
=1
4.a
8a
8g
8f
=2
4g}
8r
=3
{8c
8c
8b-
=4
4.b-
8b-
8a
8g
=5
4a}
8r
=6
{8cc
8cc
8cc
=7
8.b-
16a
8g
8cc
8cc
8cc
=8
8.a
16g
8f}
=9
{8a
8g
8g
=10
4f
4dd
8cc
16cc
16b-
=11
4a}
8r
=12
{8cc
8cc
8cc
=13
8.b-
16a
8g
8cc
8cc
8cc
=14
8.a
16g
8f}
=15
{8a
8g
8g
=16
4f
4dd
8cc
16cc
16b-
=17
4a}
8r
==
*-
!!!minrhy: 16
!!!meters: 3/4 ]  ZZ[6
!!!cut: Zwei liebten sich (20a), S. 84
!!!reg: Luxemburg
!!!trd: Singendes Volk, Esch-Alzette 1937 posth.
!!!rhy1: X_X_X_  X__.X_X_X_  X__0   (x2)
!!!rhy2: X_X_X_  X__.X_X_X_  X__0
!!!key: T0135  16  F 3/4 ]  ZZ[6
!!!mod: SECHSTONSKALA DUR ?]  AMBITUS[9
!!!kad: 231313
!!!akz: 32_43_43_13_43_13_
!!!fot: 'a__as"b__c__b__c__
!!!for: 'a__a__b__c__b__c__
!!!fok: '/__/__\__S__\__S__
!! PHRAS[AUFTAKTIG]
!!!fkt: Liebeslieder
!!!bem: StraPen, fff Witry, 10.1.1933
!! THILL, Mathias:
!! PR[29] 2K[0] 2G[7] 3K[5] 3G[5] 4A[5] 4Ü[0] 5A[0] 6K[0] 6G[2]
!! 7K[2] 7G[0] 8A[0] MEHR[0] SI[26] ABS[58] SR[7] SP[19]
!! ST[12] 2k[9] 2g[31] 3k[3] 3g[0] 4d[0] 4ü[0] 5d[2] 6k[0] 6g[0]
!! 7k[0] 7g[0] 8d[0] mehr[0] si[45] dm[-19] sr[40] sp[5]
!! 1F[13] 2F[67] 3F[13] 4F[0] LF[0] 2P[6] 3P[2] 4P[0] TRI[0] DF[5] AB[64]
!! TF[0] U3K[0] U3[0] U4[0] U4Ü[0] U5[5] U6K[0] U6[0] U7K[0] U7[0]
!! N1[8] N2K[0] N2[19] N3K[0] N3[24] N4[14] N4Ü[0] N5[27] N6K[0] N6[3]
!!!n7k: 0] N7[0] O1[0] O2K[0] O2[0] O3K[0] O3[0] HÖ[0
